icons/security_worker_fill.svg

<svg width="48" height="48" viewBox="0 0 48 48" fill="none" xmlns="http://www.w3.org/2000/svg">
<path fill-rule="evenodd" clip-rule="evenodd" d="M13.5 10.0968C13.5 7.77419 24 6 24 6C24 6 34.5 7.77419 34.5 10.0968C34.5 13.1939 32.5909 14.5 32.5909 14.5H15.4091C15.4091 14.5 13.5 13.1935 13.5 10.0968ZM25.5 10.5C25.5 11.3284 24.8284 12 24 12C23.1716 12 22.5 11.3284 22.5 10.5C22.5 9.67157 23.1716 9 24 9C24.8284 9 25.5 9.67157 25.5 10.5Z" fill="black"/>
<path fill-rule="evenodd" clip-rule="evenodd" d="M31.8143 18.2794C33.2047 17.1955 32.9877 16 32.9877 16H15.0123C15.0123 16 14.7953 17.1955 16.1857 18.2794C16.064 18.8342 16 19.41 16 20C16 24.4183 19.5817 28 24 28C28.4183 28 32 24.4183 32 20C32 19.41 31.936 18.8342 31.8143 18.2794ZM24 20C26.7215 20 28.6235 19.6861 29.9517 19.234C29.9835 19.4846 30 19.7403 30 20C30 23.3137 27.3137 26 24 26C20.6863 26 18 23.3137 18 20C18 19.7403 18.0165 19.4846 18.0483 19.234C19.3765 19.6861 21.2785 20 24 20Z" fill="black"/>
<path fill-rule="evenodd" clip-rule="evenodd" d="M25.5 30C26.0523 30 26.5 30.4477 26.5 31V32.382C26.5 32.7607 26.286 33.107 25.9472 33.2764L25.5 33.5L26.0769 36.3846L30.3172 30.0243C30.6067 30.0256 30.8761 30.0272 31.1214 30.029C36.5255 31.2619 42 33.7758 42 37.5576V42.0001H6V37.5576C6 33.7758 11.7135 31.2329 17.1176 30C17.0992 30.0043 17.3016 30.0073 17.6729 30.0094L21.9565 36.4348L22.5 33.5L22.0528 33.2764C21.714 33.107 21.5 32.7607 21.5 32.382V31C21.5 30.4477 21.9477 30 22.5 30H25.5ZM35 35.3333C35 35.3333 33.6667 34.6667 33 34C32.3333 34.6667 31 35.3333 31 35.3333C31 35.3333 31.6983 38 33 38C34.3017 38 35 35.3333 35 35.3333Z" fill="black"/>
</svg>

<svg
  xmlns="http://www.w3.org/2000/svg"
  width="24"
  height="24"
  viewBox="0 0 24 24"
  fill="none"
  stroke="currentColor"
  stroke-width="2"
  stroke-linecap="round"
  stroke-linejoin="round"
>
  <path
    fill-rule="evenodd"
    d="M13.5 10.097C13.5 7.774 24 6 24 6s10.5 1.774 10.5 4.097c0 3.097-1.91 4.403-1.91 4.403H15.41s-1.91-1.306-1.91-4.403m12 .403a1.5 1.5 0 1 1-3 0 1.5 1.5 0 0 1 3 0"
    clip-rule="evenodd"
  />
  <path
    fill-rule="evenodd"
    d="M31.814 18.28c1.39-1.085 1.174-2.28 1.174-2.28H15.012s-.217 1.195 1.174 2.28a8 8 0 1 0 15.629 0M24 20c2.721 0 4.624-.314 5.952-.766q.047.376.048.766a6 6 0 1 1-11.952-.766c1.329.452 3.23.766 5.952.766"
    clip-rule="evenodd"
  />
  <path
    fill-rule="evenodd"
    d="M25.5 30a1 1 0 0 1 1 1v1.382a1 1 0 0 1-.553.894l-.447.224.577 2.885 4.24-6.36q.436 0 .804.004C36.526 31.262 42 33.776 42 37.558V42H6v-4.442c0-3.782 5.714-6.325 11.118-7.558-.019.004.184.007.555.01l4.284 6.425.543-2.935-.447-.224a1 1 0 0 1-.553-.894V31a1 1 0 0 1 1-1zm9.5 5.333s-1.333-.666-2-1.333c-.667.667-2 1.333-2 1.333S31.698 38 33 38s2-2.667 2-2.667"
    clip-rule="evenodd"
  />
</svg>
